packages/core/assets/Icons/support_agent.svg

<svg viewBox="0 0 20 20" fill="none" xmlns="http://www.w3.org/2000/svg">
<path d="M10.0001 17.5C9.76397 17.5 9.56605 17.4201 9.40633 17.2604C9.24661 17.1007 9.16675 16.9028 9.16675 16.6667C9.16675 16.4306 9.24661 16.2326 9.40633 16.0729C9.56605 15.9132 9.76397 15.8333 10.0001 15.8333H15.8334V9.91667C15.8334 8.29167 15.2674 6.91319 14.1355 5.78125C13.0036 4.64931 11.6251 4.08333 10.0001 4.08333C8.37508 4.08333 6.99661 4.64931 5.86466 5.78125C4.73272 6.91319 4.16675 8.29167 4.16675 9.91667V14.1667C4.16675 14.4028 4.08689 14.6007 3.92716 14.7604C3.76744 14.9201 3.56953 15 3.33341 15C2.87508 15 2.48272 14.8368 2.15633 14.5104C1.82994 14.184 1.66675 13.7917 1.66675 13.3333V11.6667C1.66675 11.375 1.73966 11.1007 1.8855 10.8438C2.03133 10.5868 2.23619 10.3819 2.50008 10.2292L2.56258 9.125C2.67369 8.18056 2.948 7.30556 3.3855 6.5C3.823 5.69444 4.37161 4.99306 5.03133 4.39583C5.69105 3.79861 6.448 3.33333 7.30216 3C8.15633 2.66667 9.05564 2.5 10.0001 2.5C10.9445 2.5 11.8404 2.66667 12.6876 3C13.5348 3.33333 14.2917 3.79514 14.9584 4.38542C15.6251 4.97569 16.1737 5.67361 16.6042 6.47917C17.0348 7.28472 17.3126 8.15972 17.4376 9.10417L17.5001 10.1875C17.764 10.3125 17.9688 10.5 18.1147 10.75C18.2605 11 18.3334 11.2639 18.3334 11.5417V13.4583C18.3334 13.7361 18.2605 14 18.1147 14.25C17.9688 14.5 17.764 14.6875 17.5001 14.8125V15.8333C17.5001 16.2917 17.3369 16.684 17.0105 17.0104C16.6841 17.3368 16.2917 17.5 15.8334 17.5H10.0001ZM7.50008 11.6667C7.26397 11.6667 7.06605 11.5868 6.90633 11.4271C6.74661 11.2674 6.66675 11.0694 6.66675 10.8333C6.66675 10.5972 6.74661 10.3993 6.90633 10.2396C7.06605 10.0799 7.26397 10 7.50008 10C7.73619 10 7.93411 10.0799 8.09383 10.2396C8.25355 10.3993 8.33341 10.5972 8.33341 10.8333C8.33341 11.0694 8.25355 11.2674 8.09383 11.4271C7.93411 11.5868 7.73619 11.6667 7.50008 11.6667ZM12.5001 11.6667C12.264 11.6667 12.0661 11.5868 11.9063 11.4271C11.7466 11.2674 11.6667 11.0694 11.6667 10.8333C11.6667 10.5972 11.7466 10.3993 11.9063 10.2396C12.0661 10.0799 12.264 10 12.5001 10C12.7362 10 12.9341 10.0799 13.0938 10.2396C13.2536 10.3993 13.3334 10.5972 13.3334 10.8333C13.3334 11.0694 13.2536 11.2674 13.0938 11.4271C12.9341 11.5868 12.7362 11.6667 12.5001 11.6667ZM5.02091 10.375C4.92369 8.90278 5.36814 7.63889 6.35425 6.58333C7.34036 5.52778 8.56953 5 10.0417 5C11.2779 5 12.3647 5.39236 13.3022 6.17708C14.2397 6.96181 14.8056 7.96528 15.0001 9.1875C13.7362 9.17361 12.573 8.83333 11.5105 8.16667C10.448 7.5 9.63203 6.59722 9.06258 5.45833C8.84036 6.56944 8.37161 7.55903 7.65633 8.42708C6.94105 9.29514 6.06258 9.94444 5.02091 10.375Z" fill="currentColor"/>
</svg>

<svg xmlns="http://www.w3.org/2000/svg" width="20" height="20" fill="none" viewBox="0 0 20 20">
  <path fill="#201F1F" d="M10 17.5a.806.806 0 0 1-.594-.24.806.806 0 0 1-.24-.593c0-.236.08-.434.24-.594.16-.16.358-.24.594-.24h5.833V9.917c0-1.625-.566-3.004-1.697-4.136C13.004 4.65 11.626 4.083 10 4.083c-1.625 0-3.003.566-4.135 1.698-1.132 1.132-1.698 2.51-1.698 4.136v4.25c0 .236-.08.434-.24.593a.806.806 0 0 1-.594.24c-.458 0-.85-.163-1.177-.49a1.605 1.605 0 0 1-.49-1.177v-1.666c0-.292.074-.566.22-.823a1.63 1.63 0 0 1 .614-.615l.063-1.104c.11-.944.385-1.82.822-2.625a7.897 7.897 0 0 1 1.646-2.104A7.312 7.312 0 0 1 7.302 3 7.355 7.355 0 0 1 10 2.5c.944 0 1.84.167 2.688.5a7.586 7.586 0 0 1 2.27 1.385 7.477 7.477 0 0 1 1.646 2.094c.43.806.709 1.68.834 2.625l.062 1.084c.264.124.469.312.615.562.146.25.218.514.218.792v1.916c0 .278-.072.542-.218.792a1.38 1.38 0 0 1-.615.563v1.02c0 .459-.163.851-.49 1.177-.326.327-.718.49-1.177.49H10Zm-2.5-5.833a.806.806 0 0 1-.594-.24.806.806 0 0 1-.24-.594c0-.236.08-.434.24-.593.16-.16.358-.24.594-.24s.434.08.594.24c.16.16.24.357.24.593s-.08.434-.24.594a.806.806 0 0 1-.594.24Zm5 0a.807.807 0 0 1-.594-.24.807.807 0 0 1-.24-.594c0-.236.08-.434.24-.593.16-.16.358-.24.594-.24s.434.08.594.24c.16.16.24.357.24.593s-.08.434-.24.594a.806.806 0 0 1-.594.24Zm-7.48-1.292c-.096-1.472.348-2.736 1.334-3.792C7.34 5.528 8.57 5 10.042 5c1.236 0 2.323.392 3.26 1.177.938.785 1.504 1.788 1.698 3.01a6.58 6.58 0 0 1-3.49-1.02 6.638 6.638 0 0 1-2.447-2.709 6.647 6.647 0 0 1-1.407 2.97 6.661 6.661 0 0 1-2.635 1.947Z"/>
</svg>
